build/img/icons/ok-icon.svg

<svg width="27" height="27" viewBox="0 0 27 27" fill="none" xmlns="http://www.w3.org/2000/svg">
<path d="M13.6542 11.3784C14.6956 11.3784 15.5056 10.5105 15.4863 9.56553C15.5056 8.62054 14.7149 7.7334 13.6734 7.7334C12.6706 7.7334 11.8413 8.54339 11.8413 9.54625C11.8413 10.5491 12.6513 11.3784 13.6542 11.3784Z" fill="#CDCDCD"/>
<path d="M13.5 0C6.0557 0 0 6.05569 0 13.4999C0 20.9635 6.0557 26.9999 13.5 26.9999C20.9635 26.9999 27 20.9442 27 13.4999C27.0192 6.05569 20.9635 0 13.5 0ZM13.6928 5.11069C16.1228 5.11069 18.1285 7.11639 18.1093 9.56567C18.1093 12.0342 16.0843 14.0206 13.6157 13.9821C11.1857 13.9435 9.23784 11.9571 9.23784 9.54638C9.23784 7.09711 11.2243 5.11069 13.6928 5.11069ZM18.6493 15.5249C18.6493 15.5635 18.63 15.5828 18.63 15.6214C18.5721 16.0071 18.3793 16.3156 18.0514 16.5278C17.8393 16.6628 17.6078 16.7978 17.3764 16.9135C16.7978 17.2028 16.1807 17.4342 15.5443 17.5885C15.4671 17.6078 15.4671 17.6078 15.525 17.6656C15.8721 18.0128 16.2385 18.3792 16.5857 18.7263C17.0293 19.1699 17.4921 19.6328 17.9357 20.0763C18.5721 20.7128 18.3985 21.7735 17.5885 22.1592C17.4535 22.2363 17.2993 22.2556 17.145 22.2942C17.0678 22.2942 16.9714 22.2942 16.8943 22.2942C16.875 22.2942 16.8557 22.2942 16.8557 22.2749C16.5471 22.2363 16.2964 22.082 16.065 21.8699C15.2935 21.0985 14.5028 20.3078 13.7314 19.5363C13.6735 19.4785 13.6735 19.4785 13.6157 19.5363C12.825 20.327 12.0536 21.0985 11.2628 21.8892C11.1278 22.0242 10.9928 22.1206 10.8193 22.1978C10.7036 22.2556 10.5686 22.2749 10.4528 22.2942C10.3757 22.2942 10.2986 22.2942 10.2021 22.2942C10.1636 22.2942 10.1443 22.2749 10.1057 22.2749C9.58498 22.1785 9.23784 21.8892 9.08356 21.3878C8.92927 20.8863 9.04498 20.4428 9.41141 20.0763C9.73927 19.7485 10.0478 19.4399 10.3757 19.1121C10.8578 18.6299 11.34 18.1478 11.8028 17.6849C11.8607 17.6271 11.8607 17.6271 11.7836 17.6078C11.7643 17.6078 11.7257 17.5885 11.7064 17.5885C10.8386 17.3763 10.0478 17.0292 9.2957 16.5664C8.85213 16.2771 8.63998 15.8528 8.69784 15.3321C8.79427 14.3678 9.87427 13.8471 10.6843 14.3678C10.8386 14.4642 10.9736 14.5414 11.1471 14.6185C12.0343 15.0621 12.9793 15.2549 13.9628 15.1971C14.445 15.1778 14.9271 15.0814 15.4093 14.9271C15.8721 14.7728 16.2771 14.5606 16.7014 14.3292C17.3957 13.9242 18.3021 14.2521 18.5721 15.0042C18.6107 15.1199 18.63 15.2164 18.6493 15.3321C18.6493 15.3899 18.6493 15.4478 18.6493 15.5249Z" fill="#CDCDCD"/>
</svg>

<svg width="27" height="27" fill="none" xmlns="http://www.w3.org/2000/svg"><path d="M13.654 11.378c1.042 0 1.852-.867 1.832-1.812a1.826 1.826 0 00-1.813-1.833c-1.002 0-1.832.81-1.832 1.813s.81 1.832 1.813 1.832z" fill="#CDCDCD"/><path d="M13.5 0C6.056 0 0 6.056 0 13.5 0 20.963 6.056 27 13.5 27 20.963 27 27 20.944 27 13.5 27.02 6.056 20.963 0 13.5 0zm.193 5.11c2.43 0 4.435 2.006 4.416 4.456a4.42 4.42 0 01-4.493 4.416 4.45 4.45 0 01-4.378-4.436 4.44 4.44 0 014.455-4.435zm4.956 10.415c0 .038-.019.058-.019.096-.058.386-.25.695-.579.907-.212.135-.443.27-.675.386a8.664 8.664 0 01-1.832.674c-.077.02-.077.02-.019.078l1.06 1.06 1.35 1.35a1.288 1.288 0 01-.346 2.083c-.136.077-.29.097-.444.135h-.25c-.02 0-.04 0-.04-.02-.308-.038-.559-.192-.79-.404l-2.334-2.334c-.057-.058-.057-.058-.115 0l-2.353 2.353c-.135.135-.27.232-.444.309-.115.058-.25.077-.366.096h-.25c-.04 0-.059-.02-.097-.02-.521-.096-.868-.385-1.022-.886-.155-.502-.039-.945.327-1.312l.965-.964 1.427-1.427c.058-.058.058-.058-.02-.077-.019 0-.057-.02-.077-.02a8.336 8.336 0 01-2.41-1.022c-.444-.289-.656-.713-.598-1.234a1.295 1.295 0 011.986-.964c.155.096.29.173.463.25a5.49 5.49 0 002.816.58 5.54 5.54 0 001.446-.27c.463-.155.868-.367 1.292-.599a1.3 1.3 0 011.871.675c.039.116.058.212.077.328v.193z" fill="#CDCDCD"/></svg>
